assets/images/icons/set1/edit.svg

<svg width="28" height="28" viewBox="0 0 28 28" version="1.1" xmlns="http://www.w3.org/2000/svg" xmlns:xlink="http://www.w3.org/1999/xlink">
<title>@$&#9;</title>
<desc>Created using Figma</desc>
<g id="Canvas" transform="translate(-596 -1774)">
<g id="Icon/Presta/White/Filter">
<g id="Icon/Presta/White/Edit">
<g id="Group" opacity="0.8">
<g id="Shape">
<use xlink:href="#path0_fill" transform="translate(604.023 1782.03)" fill="#202A37"/>
</g>
<g id="Shape">
<use xlink:href="#path1_fill" transform="translate(611.023 1784.03)" fill="#202A37"/>
</g>
</g>
</g>
</g>
</g>
<defs>
<path id="path0_fill" fill-rule="evenodd" d="M 0.878105 11.9718C 0.609105 11.9718 0.335605 11.8194 0.164605 11.5753C -0.00239508 11.3354 -0.0443951 11.0528 0.0481049 10.8008C 0.169605 10.4678 1.6366 7.50685 1.9296 6.91685L 1.9661 6.84285L 8.3861 0.40035C 8.9376 -0.15215 9.93811 -0.12965 10.5166 0.44835L 11.5221 1.44335C 12.1161 2.03785 12.1186 2.89735 11.5306 3.48785L 5.0921 9.95985L 5.01811 9.99685C 5.01811 9.99685 1.56111 11.7173 1.1986 11.8973C 1.0971 11.9473 0.989605 11.9718 0.878105 11.9718ZM 2.67408 7.56734C 2.31708 8.28885 1.85208 9.23284 1.47808 9.99984C 1.28558 10.3958 1.61658 10.6848 2.00058 10.4938C 2.96408 10.0138 4.10858 9.44384 4.40958 9.29484L 10.8621 2.80484C 11.0596 2.60584 11.0576 2.37634 10.8561 2.17484L 9.83108 1.15834C 9.62558 0.952345 9.28458 0.929845 9.10858 1.10634L 2.67408 7.56734Z"/>
<path id="path1_fill" fill-rule="evenodd" d="M 2.51012 3.00062C 2.38462 3.00062 2.25962 2.95263 2.16412 2.85713L 0.143625 0.836625C -0.047875 0.645125 -0.047875 0.335125 0.143625 0.143625C 0.335125 -0.047875 0.644625 -0.047875 0.836125 0.143625L 2.85663 2.16412C 3.04813 2.35612 3.04813 2.66563 2.85663 2.85713C 2.76063 2.95263 2.63562 3.00062 2.51012 3.00062Z"/>
</defs>
</svg>

<svg xmlns="http://www.w3.org/2000/svg" width="28" height="28" xmlns:xlink="http://www.w3.org/1999/xlink" id="set1-edit">
  <g>
    <use xlink:href="#a7" transform="translate(8.023 8.03)"/>
    <use xlink:href="#b7" transform="translate(15.023 10.03)"/>
  </g>
  <defs>
    <path id="a7" fill-rule="evenodd" d="M.878105 11.9718c-.269 0-.5425-.1524-.7135-.3965-.16700008-.2399-.2090001-.5225-.1165001-.7745C.169605 10.4678 1.6366 7.50685 1.9296 6.91685l.0365-.074 6.42-6.4425c.5515-.5525 1.55201-.53 2.1305.048l1.0055.995c.594.5945.5965 1.454.0085 2.0445l-6.4385 6.472-.07399.037s-3.457 1.72045-3.81951 1.90045c-.1015.05-.208995.0745-.320495.0745zM2.67408 7.56734c-.357.72151-.822 1.6655-1.196 2.4325-.1925.39596.1385.68496.5225.49396.9635-.48 2.108-1.04996 2.409-1.19896l6.45252-6.49c.1975-.199.1955-.4285-.006-.63l-1.02502-1.0165c-.2055-.205995-.5465-.228495-.7225-.052l-6.4345 6.461z"/>
    <path id="b7" fill-rule="evenodd" d="M2.51012 3.00062c-.1255 0-.2505-.04799-.346-.14349L.143625.836625c-.1915-.1915-.1915-.5015 0-.693s.501-.1915.6925 0L2.85663 2.16412c.1915.192.1915.50151 0 .69301-.096.0955-.22101.14349-.34651.14349z"/>
  </defs>
</svg>
